X:116
T:Lion And Fawn,The. WM.116
M:C
L:1/8
Q:1/2=90
S:Wm.Mittell’s MS, New Romney,Kent,1799
R:.March
O:England
A:Kent
Z:vmp.Chris Partington
K:D
(aba).fd3f|(ede).fd2A2|(aba).fd3f|(ede).fd4:|!
|:.a2(d2c2d2)|(efg).e (dc)BA|.f2.f2.g2.g2|.^g2.g2a4:|!
|(^a2b2).g2.e2|(^g2a2).f2.d2|e3f gfed|cdecA3A|!
.d2.d2.e2.e2|.f2.f2g3f|(g2f2g2^g2)|aABc de” DCapo”fg|]

